assets/images/distributions/azure.svg

<svg xmlns="http://www.w3.org/2000/svg" preserveAspectRatio="xMidYMid" width="164" height="24" viewBox="0 0 164 24"><defs><style>.cls-2{fill:#20bdf0}</style></defs><path d="M157.206 13.711c.025 1.061.314 1.88.865 2.457.551.577 1.309.865 2.274.865 1.083 0 2.08-.354 2.988-1.061v1.433c-.846.608-1.964.912-3.355.912-1.359 0-2.427-.433-3.204-1.298-.777-.865-1.165-2.083-1.165-3.652 0-1.483.424-2.691 1.273-3.625.849-.934 1.903-1.4 3.162-1.4s2.233.403 2.922 1.209c.689.807 1.034 1.927 1.034 3.36v.8h-6.794zm4.572-3.35c-.423-.49-1.01-.735-1.762-.735a2.5 2.5 0 0 0-1.851.772c-.508.515-.821 1.188-.94 2.019h5.196c-.006-.88-.22-1.566-.643-2.056zm-8.349-.559c-.658 0-1.207.308-1.649.922-.442.614-.663 1.451-.663 2.512v4.858h-1.541V8.565h1.541v1.963h.038c.219-.67.554-1.192 1.005-1.568a2.309 2.309 0 0 1 1.513-.563c.401 0 .708.044.921.131v1.582c-.269-.205-.658-.308-1.165-.308zm-8.504 6.784h-.038c-.638 1.154-1.628 1.731-2.969 1.731-2.293 0-3.439-1.352-3.439-4.057V8.565h1.532v5.453c0 2.01.776 3.015 2.33 3.015.752 0 1.37-.275 1.856-.824.485-.549.728-1.267.728-2.154v-5.49h1.541v9.529h-1.541v-1.508zm-8.288.205v1.303h-7.902v-.475l5.694-7.751h-5.159V8.565h7.424v.437l-5.695 7.789h5.638zm-11.604-2.438h-5.714l-1.343 3.741h-1.757l5.168-13.344h1.635l5.187 13.344h-1.748l-1.428-3.741zm-2.631-7.091c-.069-.186-.138-.484-.207-.893h-.038a4.847 4.847 0 0 1-.216.893l-2.095 5.686h4.67l-2.114-5.686zm-13.597 11.037c-1.685 0-2.528-.931-2.528-2.792V9.868h-1.654V8.565h1.654V6.239l1.541-.494v2.82h2.424v1.303h-2.424v5.369c0 .639.11 1.095.329 1.368.219.273.583.409 1.09.409.388 0 .724-.105 1.005-.316v1.303c-.363.198-.842.298-1.437.298zm-5.319-13.224c-1.077 0-1.616.673-1.616 2.02v1.47h2.255v1.303h-2.255v8.226h-1.532V9.868h-1.644V8.565h1.644V7.02c0-.999.292-1.788.874-2.368.583-.58 1.31-.87 2.18-.87.47 0 .843.056 1.118.167v1.378a2.061 2.061 0 0 0-1.024-.252zM92.502 18.317c-1.422 0-2.558-.445-3.407-1.335-.849-.89-1.273-2.071-1.273-3.541 0-1.6.442-2.851 1.325-3.75.883-.9 2.077-1.349 3.58-1.349 1.435 0 2.554.437 3.359 1.312.805.874 1.208 2.087 1.208 3.638 0 1.52-.434 2.737-1.302 3.652-.867.916-2.031 1.373-3.49 1.373zm2.41-7.723c-.536-.646-1.302-.968-2.298-.968-.989 0-1.772.333-2.349 1-.576.667-.864 1.587-.864 2.759 0 1.129.291 2.019.874 2.671.582.651 1.362.977 2.339.977.996 0 1.762-.32 2.298-.958.536-.639.803-1.548.803-2.727 0-1.191-.267-2.109-.803-2.754zm-9.956 7.044c-.351.229-.755.4-1.212.512a6.077 6.077 0 0 1-1.438.167c-.989 0-1.848-.189-2.574-.568v-1.637c.839.614 1.763.921 2.772.921 1.353 0 2.029-.447 2.029-1.34 0-.254-.058-.47-.173-.647a1.735 1.735 0 0 0-.47-.47 3.627 3.627 0 0 0-.696-.367 44.735 44.735 0 0 0-.859-.34 10.87 10.87 0 0 1-1.123-.507 3.392 3.392 0 0 1-.808-.577 2.131 2.131 0 0 1-.489-.731 2.549 2.549 0 0 1-.164-.958c0-.447.103-.842.31-1.187.206-.344.482-.632.826-.865a3.874 3.874 0 0 1 1.18-.526 5.31 5.31 0 0 1 1.367-.176c.833 0 1.579.142 2.236.428v1.544c-.708-.459-1.522-.688-2.443-.688-.288 0-.548.032-.78.097a1.94 1.94 0 0 0-.596.275 1.28 1.28 0 0 0-.386.423c-.09.165-.136.346-.136.545 0 .248.046.456.136.623.091.168.224.317.4.447.175.13.388.248.639.353.25.106.535.221.855.345.426.161.808.327 1.146.498.338.17.626.363.865.577.238.214.421.46.549.739.129.279.193.612.193.996 0 .472-.105.881-.315 1.228-.21.348-.49.636-.841.866zm-11.896.679c-1.422 0-2.557-.445-3.406-1.335-.849-.89-1.273-2.071-1.273-3.541 0-1.6.441-2.851 1.325-3.75.883-.9 2.076-1.349 3.58-1.349 1.434 0 2.554.437 3.359 1.312.805.874 1.207 2.087 1.207 3.638 0 1.52-.433 2.737-1.301 3.652-.868.916-2.031 1.373-3.491 1.373zm2.41-7.723c-.535-.646-1.301-.968-2.297-.968-.99 0-1.773.333-2.349 1-.577.667-.865 1.587-.865 2.759 0 1.129.292 2.019.874 2.671.583.651 1.363.977 2.34.977.996 0 1.762-.32 2.297-.958.536-.639.804-1.548.804-2.727 0-1.191-.268-2.109-.804-2.754zm-9.269-.792c-.658 0-1.208.308-1.649.922-.442.614-.663 1.451-.663 2.512v4.858h-1.541V8.565h1.541v1.963h.038c.219-.67.554-1.192 1.005-1.568a2.307 2.307 0 0 1 1.513-.563c.401 0 .708.044.921.131v1.582c-.269-.205-.658-.308-1.165-.308zm-8.457-.176c-.984 0-1.79.349-2.42 1.047-.629.698-.944 1.614-.944 2.749 0 1.117.296 1.998.888 2.643.592.645 1.386.968 2.382.968.839 0 1.629-.276 2.368-.828v1.451c-.739.441-1.616.661-2.631.661-1.372 0-2.479-.442-3.322-1.326-.842-.884-1.264-2.03-1.264-3.438 0-1.57.454-2.831 1.363-3.783.908-.952 2.12-1.428 3.636-1.428.846 0 1.591.155 2.237.465v1.563c-.715-.496-1.479-.744-2.293-.744zm-8.156-3.48a.982.982 0 0 1-.705-.28.938.938 0 0 1-.291-.707c0-.285.097-.522.291-.712a.974.974 0 0 1 .705-.284c.282 0 .521.095.718.284.198.19.297.427.297.712a.937.937 0 0 1-.297.698.99.99 0 0 1-.718.289zm-5.695 2.996c0-.707.044-1.573.132-2.596h-.038c-.15.601-.285 1.033-.404 1.293l-4.604 10.255h-.771L33.613 7.913c-.131-.297-.266-.753-.404-1.367h-.037c.05.533.075 1.405.075 2.614v8.934h-1.522V4.75h2.086l4.134 9.305c.32.714.527 1.247.62 1.601h.057c.269-.732.485-1.278.648-1.638l4.219-9.268h1.974v13.344h-1.57V9.142zM11 11V2l13.235-2L24 11H11zM0 12h10v10L0 20.65V12zm0-9l10-1v9H0V3zm24 21l-13-2V12h13v12zm26.339-5.906h-1.541V8.565h1.541v9.529z" id="path-1" class="cls-2" fill-rule="evenodd"/></svg>

<svg xmlns="http://www.w3.org/2000/svg" xmlns:xlink="http://www.w3.org/1999/xlink" preserveAspectRatio="xMidYMid" width="164" height="24" viewBox="0 0 164 24">
  <defs>
    <style>

      .cls-2 {
        fill: #20bdf0;
      }
    </style>
  </defs>
  <path d="M157.206,13.711 C157.231,14.772 157.520,15.591 158.071,16.168 C158.622,16.745 159.380,17.033 160.345,17.033 C161.428,17.033 162.425,16.679 163.333,15.972 C163.333,15.972 163.333,17.405 163.333,17.405 C162.487,18.013 161.369,18.317 159.978,18.317 C158.619,18.317 157.551,17.884 156.774,17.019 C155.997,16.154 155.609,14.936 155.609,13.367 C155.609,11.884 156.033,10.676 156.882,9.742 C157.731,8.808 158.785,8.342 160.044,8.342 C161.303,8.342 162.277,8.745 162.966,9.551 C163.655,10.358 164.000,11.478 164.000,12.911 C164.000,12.911 164.000,13.711 164.000,13.711 C164.000,13.711 157.206,13.711 157.206,13.711 ZM161.778,10.361 C161.355,9.871 160.768,9.626 160.016,9.626 C159.289,9.626 158.672,9.883 158.165,10.398 C157.657,10.913 157.344,11.586 157.225,12.417 C157.225,12.417 162.421,12.417 162.421,12.417 C162.415,11.537 162.201,10.851 161.778,10.361 ZM153.429,9.802 C152.771,9.802 152.222,10.110 151.780,10.724 C151.338,11.338 151.117,12.175 151.117,13.236 C151.117,13.236 151.117,18.094 151.117,18.094 C151.117,18.094 149.576,18.094 149.576,18.094 C149.576,18.094 149.576,8.565 149.576,8.565 C149.576,8.565 151.117,8.565 151.117,8.565 C151.117,8.565 151.117,10.528 151.117,10.528 C151.117,10.528 151.155,10.528 151.155,10.528 C151.374,9.858 151.709,9.336 152.160,8.960 C152.611,8.585 153.116,8.397 153.673,8.397 C154.074,8.397 154.381,8.441 154.594,8.528 C154.594,8.528 154.594,10.110 154.594,10.110 C154.325,9.905 153.936,9.802 153.429,9.802 ZM144.925,16.586 C144.925,16.586 144.887,16.586 144.887,16.586 C144.249,17.740 143.259,18.317 141.918,18.317 C139.625,18.317 138.479,16.965 138.479,14.260 C138.479,14.260 138.479,8.565 138.479,8.565 C138.479,8.565 140.011,8.565 140.011,8.565 C140.011,8.565 140.011,14.018 140.011,14.018 C140.011,16.028 140.787,17.033 142.341,17.033 C143.093,17.033 143.711,16.758 144.197,16.209 C144.682,15.660 144.925,14.942 144.925,14.055 C144.925,14.055 144.925,8.565 144.925,8.565 C144.925,8.565 146.466,8.565 146.466,8.565 C146.466,8.565 146.466,18.094 146.466,18.094 C146.466,18.094 144.925,18.094 144.925,18.094 C144.925,18.094 144.925,16.586 144.925,16.586 ZM136.637,16.791 C136.637,16.791 136.637,18.094 136.637,18.094 C136.637,18.094 128.735,18.094 128.735,18.094 C128.735,18.094 128.735,17.619 128.735,17.619 C128.735,17.619 134.429,9.868 134.429,9.868 C134.429,9.868 129.270,9.868 129.270,9.868 C129.270,9.868 129.270,8.565 129.270,8.565 C129.270,8.565 136.694,8.565 136.694,8.565 C136.694,8.565 136.694,9.002 136.694,9.002 C136.694,9.002 130.999,16.791 130.999,16.791 C130.999,16.791 136.637,16.791 136.637,16.791 ZM125.033,14.353 C125.033,14.353 119.319,14.353 119.319,14.353 C119.319,14.353 117.976,18.094 117.976,18.094 C117.976,18.094 116.219,18.094 116.219,18.094 C116.219,18.094 121.387,4.750 121.387,4.750 C121.387,4.750 123.022,4.750 123.022,4.750 C123.022,4.750 128.209,18.094 128.209,18.094 C128.209,18.094 126.461,18.094 126.461,18.094 C126.461,18.094 125.033,14.353 125.033,14.353 ZM122.402,7.262 C122.333,7.076 122.264,6.778 122.195,6.369 C122.195,6.369 122.157,6.369 122.157,6.369 C122.095,6.747 122.023,7.045 121.941,7.262 C121.941,7.262 119.846,12.948 119.846,12.948 C119.846,12.948 124.516,12.948 124.516,12.948 C124.516,12.948 122.402,7.262 122.402,7.262 ZM108.805,18.299 C107.120,18.299 106.277,17.368 106.277,15.507 C106.277,15.507 106.277,9.868 106.277,9.868 C106.277,9.868 104.623,9.868 104.623,9.868 C104.623,9.868 104.623,8.565 104.623,8.565 C104.623,8.565 106.277,8.565 106.277,8.565 C106.277,8.565 106.277,6.239 106.277,6.239 C106.277,6.239 107.818,5.745 107.818,5.745 C107.818,5.745 107.818,8.565 107.818,8.565 C107.818,8.565 110.242,8.565 110.242,8.565 C110.242,8.565 110.242,9.868 110.242,9.868 C110.242,9.868 107.818,9.868 107.818,9.868 C107.818,9.868 107.818,15.237 107.818,15.237 C107.818,15.876 107.928,16.332 108.147,16.605 C108.366,16.878 108.730,17.014 109.237,17.014 C109.625,17.014 109.961,16.909 110.242,16.698 C110.242,16.698 110.242,18.001 110.242,18.001 C109.879,18.199 109.400,18.299 108.805,18.299 ZM103.486,5.075 C102.409,5.075 101.870,5.748 101.870,7.095 C101.870,7.095 101.870,8.565 101.870,8.565 C101.870,8.565 104.125,8.565 104.125,8.565 C104.125,8.565 104.125,9.868 104.125,9.868 C104.125,9.868 101.870,9.868 101.870,9.868 C101.870,9.868 101.870,18.094 101.870,18.094 C101.870,18.094 100.338,18.094 100.338,18.094 C100.338,18.094 100.338,9.868 100.338,9.868 C100.338,9.868 98.694,9.868 98.694,9.868 C98.694,9.868 98.694,8.565 98.694,8.565 C98.694,8.565 100.338,8.565 100.338,8.565 C100.338,8.565 100.338,7.020 100.338,7.020 C100.338,6.021 100.630,5.232 101.212,4.652 C101.795,4.072 102.522,3.782 103.392,3.782 C103.862,3.782 104.235,3.838 104.510,3.949 C104.510,3.949 104.510,5.327 104.510,5.327 C104.210,5.159 103.868,5.075 103.486,5.075 ZM92.502,18.317 C91.080,18.317 89.944,17.872 89.095,16.982 C88.246,16.092 87.822,14.911 87.822,13.441 C87.822,11.841 88.264,10.590 89.147,9.691 C90.030,8.791 91.224,8.342 92.727,8.342 C94.162,8.342 95.281,8.779 96.086,9.654 C96.891,10.528 97.294,11.741 97.294,13.292 C97.294,14.812 96.860,16.029 95.992,16.944 C95.125,17.860 93.961,18.317 92.502,18.317 ZM94.912,10.594 C94.376,9.948 93.610,9.626 92.614,9.626 C91.625,9.626 90.842,9.959 90.265,10.626 C89.689,11.293 89.401,12.213 89.401,13.385 C89.401,14.514 89.692,15.404 90.275,16.056 C90.857,16.707 91.637,17.033 92.614,17.033 C93.610,17.033 94.376,16.713 94.912,16.075 C95.448,15.436 95.715,14.527 95.715,13.348 C95.715,12.157 95.448,11.239 94.912,10.594 ZM84.956,17.638 C84.605,17.867 84.201,18.038 83.744,18.150 C83.287,18.261 82.807,18.317 82.306,18.317 C81.317,18.317 80.458,18.128 79.732,17.749 C79.732,17.749 79.732,16.112 79.732,16.112 C80.571,16.726 81.495,17.033 82.504,17.033 C83.857,17.033 84.533,16.586 84.533,15.693 C84.533,15.439 84.475,15.223 84.360,15.046 C84.244,14.869 84.087,14.713 83.890,14.576 C83.692,14.440 83.461,14.317 83.194,14.209 C82.928,14.100 82.641,13.987 82.335,13.869 C81.909,13.702 81.534,13.533 81.212,13.362 C80.889,13.191 80.620,12.999 80.404,12.785 C80.188,12.571 80.024,12.328 79.915,12.054 C79.805,11.782 79.751,11.462 79.751,11.096 C79.751,10.649 79.854,10.254 80.061,9.909 C80.267,9.565 80.543,9.277 80.887,9.044 C81.232,8.811 81.625,8.636 82.067,8.518 C82.508,8.401 82.964,8.342 83.434,8.342 C84.267,8.342 85.013,8.484 85.670,8.770 C85.670,8.770 85.670,10.314 85.670,10.314 C84.962,9.855 84.148,9.626 83.227,9.626 C82.939,9.626 82.679,9.658 82.447,9.723 C82.216,9.789 82.017,9.880 81.851,9.998 C81.685,10.116 81.556,10.257 81.465,10.421 C81.375,10.586 81.329,10.767 81.329,10.966 C81.329,11.214 81.375,11.422 81.465,11.589 C81.556,11.757 81.689,11.906 81.865,12.036 C82.040,12.166 82.253,12.284 82.504,12.389 C82.754,12.495 83.039,12.610 83.359,12.734 C83.785,12.895 84.167,13.061 84.505,13.232 C84.843,13.402 85.131,13.595 85.370,13.809 C85.608,14.023 85.791,14.269 85.919,14.548 C86.048,14.827 86.112,15.160 86.112,15.544 C86.112,16.016 86.007,16.425 85.797,16.772 C85.587,17.120 85.307,17.408 84.956,17.638 ZM73.060,18.317 C71.638,18.317 70.503,17.872 69.654,16.982 C68.805,16.092 68.381,14.911 68.381,13.441 C68.381,11.841 68.822,10.590 69.706,9.691 C70.589,8.791 71.782,8.342 73.286,8.342 C74.720,8.342 75.840,8.779 76.645,9.654 C77.450,10.528 77.852,11.741 77.852,13.292 C77.852,14.812 77.419,16.029 76.551,16.944 C75.683,17.860 74.520,18.317 73.060,18.317 ZM75.470,10.594 C74.935,9.948 74.169,9.626 73.173,9.626 C72.183,9.626 71.400,9.959 70.824,10.626 C70.247,11.293 69.959,12.213 69.959,13.385 C69.959,14.514 70.251,15.404 70.833,16.056 C71.416,16.707 72.196,17.033 73.173,17.033 C74.169,17.033 74.935,16.713 75.470,16.075 C76.006,15.436 76.274,14.527 76.274,13.348 C76.274,12.157 76.006,11.239 75.470,10.594 ZM66.201,9.802 C65.543,9.802 64.993,10.110 64.552,10.724 C64.110,11.338 63.889,12.175 63.889,13.236 C63.889,13.236 63.889,18.094 63.889,18.094 C63.889,18.094 62.348,18.094 62.348,18.094 C62.348,18.094 62.348,8.565 62.348,8.565 C62.348,8.565 63.889,8.565 63.889,8.565 C63.889,8.565 63.889,10.528 63.889,10.528 C63.889,10.528 63.927,10.528 63.927,10.528 C64.146,9.858 64.481,9.336 64.932,8.960 C65.383,8.585 65.887,8.397 66.445,8.397 C66.846,8.397 67.153,8.441 67.366,8.528 C67.366,8.528 67.366,10.110 67.366,10.110 C67.097,9.905 66.708,9.802 66.201,9.802 ZM57.744,9.626 C56.760,9.626 55.954,9.975 55.324,10.673 C54.695,11.371 54.380,12.287 54.380,13.422 C54.380,14.539 54.676,15.420 55.268,16.065 C55.860,16.710 56.654,17.033 57.650,17.033 C58.489,17.033 59.279,16.757 60.018,16.205 C60.018,16.205 60.018,17.656 60.018,17.656 C59.279,18.097 58.402,18.317 57.387,18.317 C56.015,18.317 54.908,17.875 54.065,16.991 C53.223,16.107 52.801,14.961 52.801,13.553 C52.801,11.983 53.255,10.722 54.164,9.770 C55.072,8.818 56.284,8.342 57.800,8.342 C58.646,8.342 59.391,8.497 60.037,8.807 C60.037,8.807 60.037,10.370 60.037,10.370 C59.322,9.874 58.558,9.626 57.744,9.626 ZM49.588,6.146 C49.312,6.146 49.077,6.052 48.883,5.866 C48.689,5.680 48.592,5.444 48.592,5.159 C48.592,4.874 48.689,4.637 48.883,4.447 C49.077,4.258 49.312,4.163 49.588,4.163 C49.870,4.163 50.109,4.258 50.306,4.447 C50.504,4.637 50.603,4.874 50.603,5.159 C50.603,5.432 50.504,5.665 50.306,5.857 C50.109,6.049 49.870,6.146 49.588,6.146 ZM43.893,9.142 C43.893,8.435 43.937,7.569 44.025,6.546 C44.025,6.546 43.987,6.546 43.987,6.546 C43.837,7.147 43.702,7.579 43.583,7.839 C43.583,7.839 38.979,18.094 38.979,18.094 C38.979,18.094 38.208,18.094 38.208,18.094 C38.208,18.094 33.613,7.913 33.613,7.913 C33.482,7.616 33.347,7.160 33.209,6.546 C33.209,6.546 33.172,6.546 33.172,6.546 C33.222,7.079 33.247,7.951 33.247,9.160 C33.247,9.160 33.247,18.094 33.247,18.094 C33.247,18.094 31.725,18.094 31.725,18.094 C31.725,18.094 31.725,4.750 31.725,4.750 C31.725,4.750 33.811,4.750 33.811,4.750 C33.811,4.750 37.945,14.055 37.945,14.055 C38.265,14.769 38.472,15.302 38.565,15.656 C38.565,15.656 38.622,15.656 38.622,15.656 C38.891,14.924 39.107,14.378 39.270,14.018 C39.270,14.018 43.489,4.750 43.489,4.750 C43.489,4.750 45.463,4.750 45.463,4.750 C45.463,4.750 45.463,18.094 45.463,18.094 C45.463,18.094 43.893,18.094 43.893,18.094 C43.893,18.094 43.893,9.142 43.893,9.142 ZM11.000,11.000 C11.000,11.000 11.000,2.000 11.000,2.000 C11.000,2.000 24.235,-0.000 24.235,-0.000 C24.235,-0.000 24.000,11.000 24.000,11.000 C24.000,11.000 11.000,11.000 11.000,11.000 ZM0.000,12.000 C0.000,12.000 10.000,12.000 10.000,12.000 C10.000,12.000 10.000,22.000 10.000,22.000 C10.000,22.000 0.000,20.650 0.000,20.650 C0.000,20.650 0.000,12.000 0.000,12.000 ZM0.000,3.000 C0.000,3.000 10.000,2.000 10.000,2.000 C10.000,2.000 10.000,11.000 10.000,11.000 C10.000,11.000 0.000,11.000 0.000,11.000 C0.000,11.000 0.000,3.000 0.000,3.000 ZM24.000,24.000 C24.000,24.000 11.000,22.000 11.000,22.000 C11.000,22.000 11.000,12.000 11.000,12.000 C11.000,12.000 24.000,12.000 24.000,12.000 C24.000,12.000 24.000,24.000 24.000,24.000 ZM50.339,18.094 C50.339,18.094 48.798,18.094 48.798,18.094 C48.798,18.094 48.798,8.565 48.798,8.565 C48.798,8.565 50.339,8.565 50.339,8.565 C50.339,8.565 50.339,18.094 50.339,18.094 Z" id="path-1" class="cls-2" fill-rule="evenodd"/>
</svg>
